X:180
T: Tommy O'Dea's
S: "Ceol Rince na hEireann" 1/98
Z: B.Black
L: 1/8
M: 4/4
R: reel
K: G
BGAG EGDG|EAAG A2 GA|BGAG EGDG|EG G2 EG G2 :|
G2 Bd eddc|BGdG BAAB|G2 Bd eddc|BGdG BGGD|
G2 Bd eddc|BGdG BAAB|G2 Bd edef|gbaf gedc||
